X: 3
T: Scatter The Mud
R: jig
M: 6/8
L: 1/8
K: Ador
eAA B2A|eAA ABd|eAA BAB|dBG GBd|eAA B2A|eAA AGE|GAB dge|dBA A3:|eaa egg|dBA ABd|eaa egg|dBG GBd|eaf g2e|dBA AGE|GAB dge|dBA ABd:|


Tune 728	Setting 13802

